X:6002
T:Gan Ainm
R:jig
S:Natalie McMaster
H:
N:
D:Solo Album #1
Z:Adrian Scahill
M:6/8
L:1/8
K:D
DFA Ad2|dfe dcd|BGB AdF|EFE E2F|\
DFA Ad2|dfe dfg|afd Bge|1 fdd d3:|2 fdd dfg||\
afd dcd|Bcd d2B|AFD def|ecA Afg|\
1 afd dcd|Bcd d2B|Afd ecA|ded dfg:|2 DFA Ad2|dfe dfg|afd Bge|fdd d3||
